public/logos/18_mex/TM.svg

<svg data-name="Layer 1" xmlns="http://www.w3.org/2000/svg" width="40" height="40"><circle cx="19.98" cy="20" r="19.62" fill="#ffc502"/><path d="M12 24.81v-1.19l1.12-.34V16.8h-1.31l-.34 1.3h-1.26v-2.86l7.91-.05v2.91h-1.27l-.34-1.3h-1.3v6.48l1.13.34v1.19zm10.64-1.19v1.19h-3.88v-1.19l1-.34V16.8l-1-.41v-1.13l3.51-.07 2.05 4.54 2.14-4.47 3.27-.07v1.2l-1 .41v6.48l1 .34v1.19h-4.02v-1.19l1.06-.34v-5.17c-.16.43-.35.87-.56 1.33s-.46 1-.73 1.5l-.62 1.28-1.47.06-1.57-3.23-.23-.71v4.94z"/></svg>

<svg id="Layer_1" data-name="Layer 1" xmlns="http://www.w3.org/2000/svg" width="40" height="40" viewBox="0 0 40 40">
  <defs>
    <style>
      .cls-1 {
        fill: #FFC502;
      }

      .cls-2 {
        fill: black;
      }
    </style>
  </defs>
  <circle class="cls-1" cx="19.98" cy="20" r="19.62"/>
  <g>
    <path class="cls-2" d="M12,24.81V23.62l1.12-.34V16.8H11.81l-.34,1.3H10.21V15.24l7.91-.05V18.1H16.85l-.34-1.3h-1.3v6.48l1.13.34v1.19Z"/>
    <path class="cls-2" d="M22.64,23.62v1.19H18.76V23.62l1-.34V16.8l-1-.41V15.26l3.51-.07,2.05,4.54,2.14-4.47,3.27-.07v1.2l-1,.41v6.48l1,.34v1.19H25.71V23.62l1.06-.34V18.11c-.16.43-.35.87-.56,1.33s-.46,1-.73,1.5l-.62,1.28-1.47.06-1.57-3.23-.23-.71v4.94Z"/>
  </g>
</svg>
